alicloud.svg

<svg viewBox="0 0 24 24" xmlns="http://www.w3.org/2000/svg"><path d="M8.0066 11.0616L16.0132 11.0616L16.0132 11.0616L16.0132 12.8586L16.0132 12.8586L8.0066 12.8586L8.0066 12.8586L8.0066 11.0616L8.0066 11.0616ZM20.0065 4.51253L14.7154 4.51253L15.9932 6.32949L19.8668 7.50752C20.5855 7.72715 21.0448 8.40601 21.0248 9.10485L21.0248 9.10485L21.0248 14.8952L21.0248 14.8952C21.0248 15.614 20.5656 16.2728 19.8668 16.4925L16.0132 17.6705L14.7154 19.4875L20.0065 19.4875C22.2228 19.4875 23.9998 17.6905 23.9998 15.4942L23.9998 8.50585C24.0198 6.30952 22.2228 4.51253 20.0065 4.51253M3.99332 4.51253L9.28446 4.51253L8.0066 6.32949L4.15305 7.50752C3.43425 7.72715 2.97502 8.40601 2.99499 9.10485L2.99499 9.10485L2.99499 14.8952L2.99499 14.8952C2.99499 15.614 3.45422 16.2728 4.15305 16.4925L8.0066 17.6705L9.28446 19.4875L3.99332 19.4875C1.79699 19.4875 0 17.6905 0 15.4942L0 8.50585C0 6.30952 1.79699 4.51253 3.99332 4.51253" fill="#ed6b1e"/></svg>

<svg viewBox="0 0 24 24" xmlns="http://www.w3.org/2000/svg"><path d="M8.007 11.062h8.006v1.797H8.007v-1.797Zm12-6.55h-5.292l1.278 1.817 3.874 1.179a1.64 1.64 0 0 1 1.158 1.597v5.79c0 .719-.46 1.378-1.158 1.598l-3.854 1.178-1.298 1.817h5.291A3.992 3.992 0 0 0 24 15.494V8.506c.02-2.196-1.777-3.993-3.994-3.993m-16.013 0h5.291L8.007 6.329 4.153 7.508a1.64 1.64 0 0 0-1.158 1.597v5.79c0 .719.46 1.378 1.158 1.598l3.854 1.178 1.277 1.817h-5.29A4.005 4.005 0 0 1 0 15.494V8.506a4.005 4.005 0 0 1 3.993-3.993" fill="#ed6b1e"/></svg>
